X:1     %Music
T:High Germany
B:Singing Together, Autumn 1966, BBC Publications
F:http://www.folkinfo.org/songs
M:4/4     %Meter
L:1/8     %
K:F
A2 |A3 D D2 C2 |F3 G A2 A2 |G2 G2 D2 D2 |D6
w:O Pol-ly, love, O Pol--ly, the rout has now be-gun
 (DE) |F2 F2 (FG) (AB) |c4 d2 dd |c2 A2 (GA) B2 | A6
w:And_ we must be_ a-_march-ing at the beat-ing of_ the drum,
(AG) |F2 F2 F2 (AB) |c2 c2 d2 d2 |c3 A (AG) F2 | G6
w:Go_ dress your-self all_ in your best and come a-long_ with me
d2 |c3 D D2 C2 |F3 G A2 A2 |(G3F) D2 D2 | D6  |]
w: I'll take you to the cru-el wars in High_ Ger-man-y